X:131
T: ALLES STILL IN SUESSER RUH
N: B0622
O: Europa, Mitteleuropa, Deutschland
R: Kinder -, Wiegen - Lied
M: 2/4
L: 1/16
K: Eb
 | E,2E,2G,2G,2 | B,2B,2G,4
A,2A,2F,2F,2 | D2D2B,4
E,2E,2G,2G,2 | B,2B,2E4
E2E2=A,2A,2 | C2B,2B,4
A,4G,4 | F,2F,2F,2
A,B, | C2B,2A,2G,2 | F,4z4
G,2G,2B,2B,2 | E2E2G4
F4EDCB, | E4z4

